X: 612
T: Flowers in the Valley., The
T: na bla.ta 'nnsa n-gleann.
R:air
N:"Moderate."
B:O'Neill's 612
Z:Transcribed by John Walsh (walsh@math.ubc.ca)
M:6/8
L:1/8
%Q:70
K:D
(d/e/)|(f>gf) (e<af)|(d>cd) ec (d/B/)|(A>BG) (FAd)|(d>ef) e2 (d/e/)|
(f>gf) (e<af)|(dcd) ec (d/B/)|(A>BG) (FAd)|(eBc) d2||
f|fde (f<b) (a/g/)|fde (f<d) (f/e/)|ecd (e<a)f|ecB A2A|
dfe (f/d/) z e|(f>ga) (g/e/) z f|gab (b/a/)(g/f/)(e/d/)|eBc d2 c/B/|
ABG (F/A/) z (d/e/)|(f>ga) (g/e/) z f|(g>ab) (b/a/)(g/f/)(e/d/)|eBTHc {Bc}d2||


